X:248
T:Scully Casey's
R:jig
M:6/8
L:1/8
K:Ador
cdc BAG|EGA GAB|cBc dcd|ega ged|
~c3 BAG|EGA GAB|cec dBG|BAA A2B:|
cBc dcd|ega ged|eaa aga|bag a2g|
eaa c'aa|ac'a ged|~c3 dBG|BAA A2B:|

